src/lib/packages/icons/src/assets/filled/copyright-circle.svg

<svg width="24" height="24" viewBox="0 0 24 24" fill="none" xmlns="http://www.w3.org/2000/svg">
<path d="M12 2C6.477 2 2 6.477 2 12C2 17.523 6.477 22 12 22C17.523 22 22 17.523 22 12C22 6.477 17.523 2 12 2ZM12.1399 14.75C13.0349 14.75 13.8731 14.31 14.3831 13.573C14.6191 13.233 15.086 13.1461 15.427 13.3831C15.768 13.6191 15.8529 14.086 15.6169 14.426C14.8259 15.568 13.5259 16.249 12.1389 16.249C9.79492 16.249 7.88892 14.342 7.88892 11.999C7.88892 9.65602 9.79492 7.74902 12.1389 7.74902C13.5259 7.74902 14.8259 8.43102 15.6169 9.57202C15.8519 9.91202 15.767 10.38 15.427 10.615C15.086 10.853 14.6191 10.765 14.3831 10.425C13.8731 9.68805 13.0339 9.24805 12.1399 9.24805C10.6229 9.24805 9.38989 10.481 9.38989 11.998C9.38989 13.515 10.6229 14.75 12.1399 14.75Z" fill="currentColor"/>
</svg>

<svg xmlns="http://www.w3.org/2000/svg" width="24" height="24" fill="none"><path fill="currentColor" d="M12 2C6.477 2 2 6.477 2 12s4.477 10 10 10 10-4.477 10-10S17.523 2 12 2Zm.14 12.75c.895 0 1.733-.44 2.243-1.177a.75.75 0 1 1 1.234.853 4.232 4.232 0 0 1-3.478 1.823 4.255 4.255 0 0 1-4.25-4.25 4.255 4.255 0 0 1 4.25-4.25c1.387 0 2.687.682 3.478 1.823a.75.75 0 0 1-1.234.853 2.73 2.73 0 0 0-2.243-1.177 2.752 2.752 0 0 0-2.75 2.75 2.754 2.754 0 0 0 2.75 2.752Z"/></svg>
